; generated by Slic3r 1.3.0-dev on 2016-06-22 at 14:38:04

; external perimeters extrusion width = 0.40mm
; perimeters extrusion width = 0.67mm
; infill extrusion width = 0.67mm
; solid infill extrusion width = 0.67mm
; top infill extrusion width = 0.67mm

M107
M190 S65 ; set bed temperature and wait for it to be reached
M104 S220 ; set temperature
G28 ; home all axes
G92 X260 Y145 Z0
G1 Z5 F5000 ; lift nozzle

M109 S220 ; set temperature and wait for it to be reached
G21 ; set units to millimeters
G90 ; use absolute coordinates
M82 ; use absolute distances for extrusion
G92 E0
G1 Z0.350 F6000.000
G1 X20.668 Y22.762 F6000.000
G1 F1800
G1 X22.820 Y21.970 E0.19812
G1 X24.000 Y21.864 E0.30044
G1 X176.000 Y21.864 E13.43067
G1 X178.259 Y22.261 E13.62879
G1 X180.247 Y23.404 E13.82690
G1 X181.726 Y25.157 E14.02502
G1 X182.519 Y27.309 E14.22313
G1 X182.625 Y28.489 E14.32545
G1 X182.625 Y128.489 E22.96376
G1 X182.228 Y130.747 E23.16188
G1 X180.542 Y133.312 E23.42699
G1 X139.750 Y171.724 E28.26710
G1 X138.860 Y172.428 E28.36518
G1 X131.880 Y177.039 E29.08780
G1 X129.776 Y177.953 E29.28592
G1 X128.228 Y178.136 E29.42056
G1 X105.951 Y178.136 E31.34499
G1 X102.871 Y177.377 E31.61897
G1 X20.921 Y134.354 E39.61436
G1 X19.105 Y132.953 E39.81248
G1 X17.876 Y131.016 E40.01059
G1 X17.375 Y128.489 E40.23320
G1 X17.375 Y28.489 E48.87151
G1 X17.772 Y26.230 E49.06963
G1 X18.915 Y24.242 E49.26774
G1 X20.622 Y22.801 E49.46067
G1 E47.46067 F2400.00000
G92 E0
G1 X106.663 Y169.142 F6000.000
G1 E2.00000 F2400.00000
G1 F1800
G1 X106.545 Y168.927 E2.02122
G1 X105.686 Y167.917 E2.13570
G1 X104.642 Y167.101 E2.25018
G1 X103.456 Y166.510 E2.36466
G1 X102.568 Y166.274 E2.44398
G1 X101.727 Y166.221 E2.51683
G1 X101.135 Y166.143 E2.56839
G1 X100.347 Y165.816 E2.64206
G1 X99.670 Y165.297 E2.71572
G1 X99.151 Y164.621 E2.78939
G1 X98.825 Y163.833 E2.86305
G1 X98.714 Y162.987 E2.93672
G1 X98.825 Y162.142 E3.01038
G1 X99.151 Y161.354 E3.08405
G1 X99.635 Y160.723 E3.15273
G1 X100.861 Y160.132 E3.27029
G1 X103.977 Y158.933 E3.55871
G1 X107.181 Y157.992 E3.84713
G1 X110.450 Y157.315 E4.13555
G1 X113.764 Y156.907 E4.42397
G1 X117.100 Y156.770 E4.71239
G1 X120.436 Y156.907 E5.00081
G1 X123.750 Y157.315 E5.28923
G1 X127.019 Y157.992 E5.57765
G1 X130.223 Y158.933 E5.86608
G1 X133.339 Y160.132 E6.15450
G1 X134.641 Y160.760 E6.27936
G1 X134.845 Y160.965 E6.30436
G1 X135.278 Y161.716 E6.37924
G1 X135.501 Y162.553 E6.45411
G1 X135.500 Y163.420 E6.52898
G1 X135.275 Y164.257 E6.60385
G1 X134.841 Y165.007 E6.67873
G1 X134.228 Y165.620 E6.75360
G1 X133.476 Y166.052 E6.82847
G1 X132.736 Y166.250 E6.89462
G1 X130.792 Y166.382 E7.06295
G1 X129.464 Y167.073 E7.19231
G1 X128.433 Y167.908 E7.30687
G1 X127.591 Y168.932 E7.42143
G1 X127.492 Y169.122 E7.43992
G1 X124.157 Y166.949 E7.78371
G1 X123.456 Y166.150 E7.87550
G1 X122.377 Y165.250 E7.99692
G1 X121.172 Y164.526 E8.11835
G1 X119.870 Y163.996 E8.23978
G1 X118.502 Y163.673 E8.36121
G1 X117.100 Y163.565 E8.48264
G1 X115.698 Y163.673 E8.60407
G1 X114.330 Y163.996 E8.72549
G1 X113.028 Y164.526 E8.84693
G1 X111.823 Y165.250 E8.96836
G1 X110.744 Y166.150 E9.08978
G1 X110.044 Y166.948 E9.18144
G1 X106.713 Y169.109 E9.52442
G1 X106.440 Y170.032 F6000.000
G1 F1800
G1 X106.028 Y169.283 E9.59822
G1 X105.251 Y168.371 E9.70176
G1 X104.307 Y167.632 E9.80531
G1 X103.234 Y167.098 E9.90885
G1 X102.467 Y166.894 E9.97738
G1 X101.666 Y166.843 E10.04672
G1 X100.972 Y166.752 E10.10721
G1 X100.032 Y166.362 E10.19509
G1 X99.225 Y165.743 E10.28297
G1 X98.605 Y164.936 E10.37085
G1 X98.216 Y163.996 E10.45873
G1 X98.083 Y162.987 E10.54661
G1 X98.216 Y161.979 E10.63449
G1 X98.605 Y161.039 E10.72236
G1 X99.230 Y160.225 E10.81099
G1 X100.613 Y159.558 E10.94361
G1 X103.776 Y158.341 E11.23643
G1 X107.029 Y157.385 E11.52927
G1 X110.348 Y156.698 E11.82210
G1 X113.713 Y156.283 E12.11493
G1 X117.100 Y156.145 E12.40776
G1 X120.487 Y156.283 E12.70059
G1 X123.852 Y156.698 E12.99342
G1 X127.171 Y157.385 E13.28625
G1 X130.424 Y158.341 E13.57909
G1 X133.587 Y159.558 E13.87191
G1 X135.008 Y160.243 E14.00817
G1 X135.346 Y160.582 E14.04948
G1 X135.860 Y161.475 E14.13856
G1 X136.126 Y162.472 E14.22765
G1 X136.125 Y163.503 E14.31674
G1 X135.857 Y164.499 E14.40582
G1 X135.341 Y165.392 E14.49491
G1 X134.611 Y166.120 E14.58399
G1 X133.717 Y166.635 E14.67308
G1 X132.839 Y166.869 E14.75155
G1 X130.965 Y166.997 E14.91384
G1 X129.808 Y167.598 E15.02648
G1 X128.876 Y168.353 E15.13010
G1 X128.114 Y169.280 E15.23372
G1 X127.724 Y170.019 E15.30591
G1 X123.744 Y167.426 E15.71628
G1 X123.018 Y166.599 E15.81129
G1 X122.013 Y165.761 E15.92436
G1 X120.891 Y165.087 E16.03743
G1 X119.679 Y164.593 E16.15050
G1 X118.405 Y164.293 E16.26357
G1 X117.100 Y164.191 E16.37664
G1 X115.795 Y164.293 E16.48971
G1 X114.521 Y164.593 E16.60278
G1 X113.309 Y165.087 E16.71585
G1 X112.187 Y165.761 E16.82892
G1 X111.182 Y166.599 E16.94199
G1 X110.456 Y167.425 E17.03691
G1 X106.490 Y169.999 E17.44539
G1 X106.148 Y170.966 F6000.000
G1 F1800
G1 X106.028 Y170.579 E17.48039
G1 X105.511 Y169.640 E17.57299
G1 X104.816 Y168.824 E17.66560
G1 X103.972 Y168.163 E17.75821
G1 X103.012 Y167.685 E17.85081
G1 X102.366 Y167.514 E17.90855
G1 X101.605 Y167.465 E17.97439
G1 X100.809 Y167.360 E18.04381
G1 X99.717 Y166.908 E18.14591
G1 X98.779 Y166.189 E18.24800
G1 X98.060 Y165.251 E18.35009
G1 X97.607 Y164.159 E18.45218
G1 X97.453 Y162.987 E18.55427
G1 X97.607 Y161.816 E18.65636
G1 X98.060 Y160.724 E18.75846
G1 X98.779 Y159.786 E18.86054
G1 X98.911 Y159.685 E18.87488
G1 X100.365 Y158.984 E19.01430
G1 X103.576 Y157.748 E19.31154
G1 X106.877 Y156.778 E19.60878
G1 X110.247 Y156.080 E19.90602
G1 X113.662 Y155.660 E20.20326
G1 X117.100 Y155.520 E20.50051
G1 X120.538 Y155.660 E20.79775
G1 X123.953 Y156.080 E21.09499
G1 X127.323 Y156.778 E21.39223
G1 X130.624 Y157.748 E21.68947
G1 X133.835 Y158.984 E21.98671
G1 X135.375 Y159.727 E22.13437
G1 X135.846 Y160.199 E22.19197
G1 X136.443 Y161.235 E22.29527
G1 X136.751 Y162.390 E22.39857
G1 X136.750 Y163.586 E22.50187
G1 X136.439 Y164.741 E22.60517
G1 X135.840 Y165.776 E22.70847
G1 X134.994 Y166.620 E22.81177
G1 X133.958 Y167.217 E22.91506
G1 X132.942 Y167.488 E23.00586
G1 X131.137 Y167.611 E23.16211
G1 X130.152 Y168.123 E23.25803
G1 X129.319 Y168.799 E23.35071
G1 X128.637 Y169.628 E23.44339
G1 X128.137 Y170.577 E23.53607
G1 X128.025 Y170.961 E23.57063
G1 X123.331 Y167.902 E24.05454
G1 X122.581 Y167.048 E24.15276
G1 X121.650 Y166.271 E24.25747
G1 X120.611 Y165.647 E24.36219
G1 X119.488 Y165.190 E24.46690
G1 X118.309 Y164.912 E24.57161
G1 X117.100 Y164.818 E24.67632
G1 X115.891 Y164.912 E24.78103
G1 X114.712 Y165.190 E24.88574
G1 X113.589 Y165.647 E24.99045
G1 X112.550 Y166.271 E25.09516
G1 X111.619 Y167.048 E25.19987
G1 X110.869 Y167.902 E25.29807
G1 X106.198 Y170.934 E25.77908
G1 X106.194 Y170.569 F6000.000
G1 X104.242 Y166.397 F6000.000
G1 F1800
G1 X99.424 Y161.579 E26.38173
G1 X99.806 Y161.056 E26.43899
G1 X107.171 Y168.421 E27.36019
G1 X107.720 Y168.065 E27.41803
G1 X100.387 Y160.732 E28.33518
G1 X101.002 Y160.442 E28.39530
G1 X108.268 Y167.709 E29.30415
G1 X108.817 Y167.353 E29.36199
G1 X101.655 Y160.191 E30.25775
G1 X102.308 Y159.939 E30.31966
G1 X109.366 Y166.997 E31.20233
G1 X109.897 Y166.624 E31.25977
G1 X102.961 Y159.688 E32.12720
G1 X103.615 Y159.437 E32.18911
G1 X110.320 Y166.142 E33.02775
G1 X110.780 Y165.698 E33.08434
G1 X104.286 Y159.203 E33.89657
G1 X104.985 Y158.998 E33.96102
G1 X111.274 Y165.286 E34.74747
G1 X111.782 Y164.890 E34.80449
G1 X105.685 Y158.792 E35.56714
G1 X106.384 Y158.587 E35.63159
G1 X112.348 Y164.551 E36.37748
G1 X112.913 Y164.211 E36.43579
G1 X107.083 Y158.381 E37.16491
G1 X107.826 Y158.220 E37.23217
G1 X113.553 Y163.947 E37.94845
G1 X114.197 Y163.685 E38.00985
G1 X108.576 Y158.065 E38.71283
G1 X109.325 Y157.909 E38.78052
G1 X114.913 Y163.497 E39.47938
G1 X115.645 Y163.325 E39.54590
G1 X110.075 Y157.754 E40.24256
G1 X110.856 Y157.631 E40.31251
G1 X116.469 Y163.244 E41.01451
G1 X117.322 Y163.192 E41.09005
G1 X111.662 Y157.532 E41.79793
G1 X112.467 Y157.432 E41.86971
G1 X118.302 Y163.267 E42.59949
G1 X119.401 Y163.462 E42.69819
G1 X113.273 Y157.333 E43.46468
G1 X114.112 Y157.268 E43.53911
G1 X120.709 Y163.864 E44.36417
G1 X122.574 Y164.825 F6000.000
G1 F1800
G1 X114.984 Y157.235 E45.31349
G1 X115.856 Y157.202 E45.39066
G1 X126.688 Y168.034 E46.74543
G1 X127.767 Y168.208 E46.84204
G1 X116.728 Y157.169 E48.22265
G1 X117.640 Y157.177 E48.30336
G1 X128.175 Y167.711 E49.62088
G1 X128.668 Y167.300 E49.67768
G1 X118.584 Y157.215 E50.93891
G1 X119.527 Y157.254 E51.02240
G1 X129.168 Y166.895 E52.22815
G1 X129.735 Y166.557 E52.28653
G1 X120.490 Y157.312 E53.44281
G1 X121.521 Y157.439 E53.53474
G1 X130.330 Y166.248 E54.63645
G1 X130.985 Y165.998 E54.69846
G1 X122.553 Y157.566 E55.75307
G1 X123.590 Y157.698 E55.84554
G1 X131.832 Y165.941 E56.87636
G1 X132.679 Y165.883 E56.95144
G1 X124.731 Y157.935 E57.94549
G1 X125.872 Y158.171 E58.04853
G1 X133.410 Y165.709 E58.99128
G1 X133.984 Y165.378 E59.04987
G1 X127.044 Y158.438 E59.91788
G1 X128.325 Y158.814 E60.03598
G1 X134.436 Y164.926 E60.80032
G1 X134.813 Y164.397 E60.85769
G1 X129.606 Y159.191 E61.50886
G1 X131.030 Y159.710 F6000.000
G1 F1800
G1 X135.055 Y163.735 E62.01224
G1 X135.123 Y162.898 E62.08649
G1 X132.501 Y160.276 E62.41438
G1 X134.153 Y161.024 F6000.000
G1 F1800
G1 X134.607 Y161.477 E62.47107
G1 X102.860 Y165.920 F6000.000
G1 F1800
G1 X99.178 Y162.238 E62.93165
G1 X99.128 Y163.092 E63.00737
G1 X101.875 Y165.840 E63.35098
G1 X100.290 Y165.159 F6000.000
G1 F1800
G1 X99.808 Y164.678 E63.41122
G1 E61.41122 F2400.00000
G92 E0
G1 X109.050 Y140.692 F6000.000
G1 E2.00000 F2400.00000
G1 F1800
G1 X110.744 Y142.621 E2.22173
G1 X111.823 Y143.521 E2.34315
G1 X113.028 Y144.245 E2.46458
G1 X114.330 Y144.775 E2.58601
G1 X115.698 Y145.098 E2.70744
G1 X117.100 Y145.206 E2.82887
G1 X118.502 Y145.098 E2.95030
G1 X119.870 Y144.775 E3.07173
G1 X121.172 Y144.245 E3.19316
G1 X122.377 Y143.521 E3.31459
G1 X123.456 Y142.621 E3.43601
G1 X125.150 Y140.692 E3.65774
G1 X123.992 Y139.113 E3.82692
G1 X123.688 Y138.155 E3.91374
G1 X123.631 Y137.820 E3.94307
G1 X123.613 Y137.503 E3.97045
G1 X123.631 Y137.187 E3.99783
G1 X123.722 Y136.724 E4.03855
G1 X123.992 Y135.894 E4.11397
G1 X124.239 Y135.557 E4.15011
G1 X124.580 Y135.312 E4.18634
G1 X124.980 Y135.186 E4.22258
G1 X125.400 Y135.191 E4.25881
G1 X125.797 Y135.326 E4.29505
G1 X126.133 Y135.577 E4.33128
G1 X126.373 Y135.921 E4.36751
G1 X126.520 Y136.403 E4.41103
G1 X126.601 Y137.393 E4.49683
G1 X126.972 Y138.666 E4.61138
G1 X127.591 Y139.839 E4.72595
G1 X128.433 Y140.863 E4.84051
G1 X129.464 Y141.698 E4.95506
G1 X130.792 Y142.389 E5.08442
G1 X132.736 Y142.522 E5.25275
G1 X133.476 Y142.719 E5.31890
G1 X134.227 Y143.151 E5.39377
G1 X134.841 Y143.764 E5.46865
G1 X135.275 Y144.514 E5.54352
G1 X135.500 Y145.351 E5.61839
G1 X135.501 Y146.218 E5.69326
G1 X135.278 Y147.055 E5.76814
G1 X134.845 Y147.806 E5.84301
G1 X134.641 Y148.011 E5.86802
G1 X133.339 Y148.639 E5.99288
G1 X130.223 Y149.838 E6.28130
G1 X127.019 Y150.779 E6.56972
G1 X123.750 Y151.456 E6.85814
G1 X120.436 Y151.864 E7.14656
G1 X117.100 Y152.001 E7.43498
G1 X113.764 Y151.864 E7.72340
G1 X110.450 Y151.456 E8.01182
G1 X107.181 Y150.779 E8.30024
G1 X103.977 Y149.838 E8.58866
G1 X100.861 Y148.639 E8.87708
G1 X99.635 Y148.048 E8.99464
G1 X99.151 Y147.417 E9.06332
G1 X98.825 Y146.629 E9.13699
G1 X98.714 Y145.784 E9.21066
G1 X98.825 Y144.938 E9.28432
G1 X99.151 Y144.150 E9.35799
G1 X99.670 Y143.474 E9.43165
G1 X100.347 Y142.955 E9.50532
G1 X101.135 Y142.628 E9.57898
G1 X101.727 Y142.550 E9.63055
G1 X102.568 Y142.497 E9.70339
G1 X103.456 Y142.261 E9.78271
G1 X104.642 Y141.670 E9.89719
G1 X105.686 Y140.854 E10.01166
G1 X106.545 Y139.844 E10.12615
G1 X107.184 Y138.683 E10.24063
G1 X107.577 Y137.418 E10.35511
G1 X107.676 Y136.416 E10.44205
G1 X107.827 Y135.921 E10.48677
G1 X108.067 Y135.577 E10.52301
G1 X108.403 Y135.326 E10.55924
G1 X108.800 Y135.191 E10.59547
G1 X109.220 Y135.186 E10.63171
G1 X109.620 Y135.312 E10.66794
G1 X109.961 Y135.557 E10.70418
G1 X110.208 Y135.894 E10.74031
G1 X110.471 Y136.703 E10.81379
G1 X110.552 Y137.052 E10.84473
G1 X110.586 Y137.467 E10.88074
G1 X110.567 Y137.848 E10.91364
G1 X110.472 Y138.304 E10.95388
G1 X110.208 Y139.113 E11.02737
G1 X109.086 Y140.644 E11.19136
G1 X109.851 Y140.657 F6000.000
G1 F1800
G1 X111.182 Y142.172 E11.36555
G1 X112.187 Y143.010 E11.47862
G1 X113.309 Y143.685 E11.59169
G1 X114.521 Y144.178 E11.70476
G1 X115.795 Y144.478 E11.81783
G1 X117.100 Y144.580 E11.93090
G1 X118.405 Y144.478 E12.04397
G1 X119.679 Y144.178 E12.15704
G1 X120.891 Y143.685 E12.27011
G1 X122.013 Y143.010 E12.38318
G1 X123.018 Y142.172 E12.49624
G1 X124.349 Y140.657 E12.67043
G1 X123.429 Y139.401 E12.80490
G1 X123.121 Y138.458 E12.89064
G1 X123.009 Y137.890 E12.94061
G1 X122.988 Y137.503 E12.97408
G1 X123.009 Y137.117 E13.00755
G1 X123.077 Y136.721 E13.04221
G1 X123.429 Y135.605 E13.14327
G1 X123.794 Y135.107 E13.19666
G1 X124.297 Y134.746 E13.25011
G1 X124.888 Y134.560 E13.30357
G1 X125.506 Y134.567 E13.35702
G1 X126.092 Y134.766 E13.41047
G1 X126.587 Y135.137 E13.46392
G1 X126.942 Y135.644 E13.51738
G1 X127.137 Y136.285 E13.57527
G1 X127.218 Y137.279 E13.66136
G1 X127.554 Y138.430 E13.76498
G1 X128.114 Y139.491 E13.86860
G1 X128.876 Y140.418 E13.97222
G1 X129.808 Y141.173 E14.07584
G1 X130.965 Y141.774 E14.18848
G1 X132.839 Y141.902 E14.35077
G1 X133.717 Y142.136 E14.42924
G1 X134.611 Y142.651 E14.51833
G1 X135.341 Y143.380 E14.60741
G1 X135.857 Y144.272 E14.69650
G1 X136.125 Y145.268 E14.78558
G1 X136.126 Y146.299 E14.87467
G1 X135.861 Y147.296 E14.96376
G1 X135.346 Y148.189 E15.05284
G1 X135.008 Y148.528 E15.09415
G1 X133.587 Y149.213 E15.23041
G1 X130.424 Y150.430 E15.52324
G1 X127.171 Y151.386 E15.81607
G1 X123.852 Y152.073 E16.10890
G1 X120.487 Y152.488 E16.40173
G1 X117.100 Y152.626 E16.69456
G1 X113.713 Y152.488 E16.98739
G1 X110.348 Y152.073 E17.28022
G1 X107.029 Y151.386 E17.57305
G1 X103.776 Y150.430 E17.86589
G1 X100.613 Y149.213 E18.15872
G1 X99.230 Y148.546 E18.29133
G1 X98.605 Y147.732 E18.37996
G1 X98.216 Y146.792 E18.46784
G1 X98.083 Y145.784 E18.55571
G1 X98.216 Y144.775 E18.64359
G1 X98.605 Y143.835 E18.73147
G1 X99.225 Y143.028 E18.81935
G1 X100.032 Y142.409 E18.90723
G1 X100.972 Y142.019 E18.99511
G1 X101.666 Y141.928 E19.05560
G1 X102.467 Y141.877 E19.12494
G1 X103.234 Y141.673 E19.19347
G1 X104.307 Y141.139 E19.29701
G1 X105.251 Y140.401 E19.40055
G1 X106.028 Y139.488 E19.50410
G1 X106.606 Y138.437 E19.60765
G1 X106.961 Y137.293 E19.71119
G1 X107.061 Y136.293 E19.79794
G1 X107.258 Y135.644 E19.85657
G1 X107.613 Y135.137 E19.91002
G1 X108.108 Y134.766 E19.96348
G1 X108.694 Y134.567 E20.01693
G1 X109.312 Y134.560 E20.07038
G1 X109.903 Y134.746 E20.12384
G1 X110.406 Y135.107 E20.17729
G1 X110.771 Y135.605 E20.23068
G1 X111.074 Y136.536 E20.31523
G1 X111.167 Y136.938 E20.35087
G1 X111.211 Y137.464 E20.39650
G1 X111.167 Y138.069 E20.44885
G1 X111.074 Y138.471 E20.48448
G1 X110.771 Y139.401 E20.56903
G1 X109.886 Y140.608 E20.69831
G1 X110.652 Y140.622 F6000.000
G1 F1800
G1 X111.619 Y141.723 E20.82497
G1 X112.550 Y142.500 E20.92968
G1 X113.589 Y143.124 E21.03439
G1 X114.712 Y143.581 E21.13910
G1 X115.891 Y143.859 E21.24381
G1 X117.100 Y143.953 E21.34852
G1 X118.309 Y143.859 E21.45323
G1 X119.488 Y143.581 E21.55794
G1 X120.611 Y143.124 E21.66265
G1 X121.650 Y142.500 E21.76736
G1 X122.581 Y141.723 E21.87207
G1 X123.548 Y140.622 E21.99872
G1 X122.866 Y139.690 E22.09848
G1 X122.521 Y138.633 E22.19452
G1 X122.465 Y138.417 E22.21381
G1 X122.387 Y137.961 E22.25380
G1 X122.362 Y137.503 E22.29336
G1 X122.387 Y137.046 E22.33292
G1 X122.465 Y136.590 E22.37291
G1 X122.866 Y135.317 E22.48820
G1 X123.349 Y134.657 E22.55885
G1 X124.014 Y134.180 E22.62952
G1 X124.795 Y133.934 E22.70019
G1 X125.613 Y133.943 E22.77087
G1 X126.387 Y134.206 E22.84154
G1 X127.042 Y134.697 E22.91221
G1 X127.511 Y135.367 E22.98288
G1 X127.754 Y136.168 E23.05515
G1 X127.836 Y137.164 E23.14154
G1 X128.137 Y138.194 E23.23421
G1 X128.637 Y139.143 E23.32690
G1 X129.319 Y139.972 E23.41958
G1 X130.152 Y140.648 E23.51226
