; generated by Slic3r 1.2.1-dev on 2015-02-25 at 23:34:51

; external perimeters extrusion width = 0.50mm
; perimeters extrusion width = 0.72mm
; infill extrusion width = 0.72mm
; solid infill extrusion width = 0.72mm
; top infill extrusion width = 0.72mm

M107
M190 S85 ; wait for bed temperature to be reached
M104 S240 ; set temperature
G28 X0 Y0
G28 Z0
G1 Z0.3 F200
G1 X15 Y20 F12000
M109 S240 ; wait for temperature to be reached
G21 ; set units to millimeters
G90 ; use absolute coordinates
M82 ; use absolute distances for extrusion
G92 E0
G1 E-2.00000 F1800.000
G92 E0
G1 Z0.500 F15000.000
G1 X72.459 Y91.679 F15000.000
G1 E2.00000 F1800.000
G1 X72.739 Y91.476 E2.05768 F1080.000
G1 X73.495 Y90.994 E2.20739
G1 X73.797 Y90.828 E2.26507
G1 X74.592 Y90.450 E2.41196
G1 X80.321 Y88.165 E3.44216
G1 X82.875 Y87.674 E3.87649
G1 X122.201 Y87.674 E10.44450
G1 X123.934 Y87.896 E10.73626
G1 X124.478 Y88.037 E10.83010 F1080.000
G1 X127.313 Y89.547 E11.36659
G1 X128.197 Y90.365 E11.56772
G1 X129.583 Y91.828 E11.90435
G1 X130.879 Y93.776 E12.29511
G1 X131.470 Y96.567 E12.77154
G1 X131.470 Y102.567 E13.77362
G1 X131.073 Y104.873 E14.16438
G1 X129.927 Y106.913 E14.55514
G1 X127.483 Y108.817 E15.07260
G1 X121.319 Y111.683 E16.20798
G1 X118.413 Y112.326 E16.70507
G1 X96.271 Y112.317 E20.40292
G1 X82.521 Y111.610 E22.70239
G1 X80.169 Y111.066 E23.10564
G1 X73.825 Y108.321 E24.26015
G1 X72.764 Y107.676 E24.46746
G1 X71.792 Y106.903 E24.67495
G1 X70.926 Y106.015 E24.88214
G1 X70.176 Y105.023 E25.08986
G1 X69.558 Y103.948 E25.29683
G1 X69.078 Y102.801 E25.50454
G1 X68.747 Y101.605 E25.71181
G1 X68.568 Y100.375 E25.91941
G1 X68.544 Y99.135 E26.12651
G1 X68.566 Y98.790 E26.18420
G1 X68.676 Y97.899 E26.33417
G1 X68.741 Y97.560 E26.39191
G1 X68.962 Y96.691 E26.54158
G1 X69.069 Y96.363 E26.59926
G1 X69.398 Y95.526 E26.74936
G1 X69.545 Y95.214 E26.80707
G1 X69.974 Y94.429 E26.95641
G1 X70.686 Y93.409 E27.16413
G1 X71.517 Y92.489 E27.37132
G1 X71.769 Y92.253 E27.42901
G1 X72.402 Y91.727 E27.56637
G1 E25.56637 F1800.000
G92 E0
G1 X82.668 Y98.852 F15000.000
G1 E2.00000 F1800.000
G1 X122.291 Y98.852 E8.61766 F576.000
G1 X122.291 Y100.281 E8.85636
G1 X121.928 Y100.281 E8.91708
G1 X121.719 Y100.466 E8.96369
G1 X119.535 Y100.466 E9.32838
G1 X119.535 Y100.281 E9.35928
G1 X115.053 Y100.281 E10.10791
G1 X114.844 Y100.466 E10.15452
G1 X112.660 Y100.466 E10.51921
G1 X112.660 Y100.281 E10.55011
G1 X101.303 Y100.281 E12.44690
G1 X101.094 Y100.466 E12.49352
G1 X98.910 Y100.466 E12.85825
G1 X98.910 Y100.281 E12.88915
G1 X94.428 Y100.281 E13.63772
G1 X94.219 Y100.466 E13.68434
G1 X92.035 Y100.466 E14.04908
G1 X92.035 Y100.281 E14.07997
G1 X82.668 Y100.281 E15.64446
G1 X82.713 Y99.567 E15.76404
G1 X82.673 Y98.927 E15.87110
G1 X81.464 Y97.960 F15000.000
G1 X123.184 Y97.960 E22.83894 F576.000
G1 X123.184 Y101.174 E23.37582
G1 X122.266 Y101.174 E23.52911
G1 X122.057 Y101.359 E23.57572
G1 X118.643 Y101.359 E24.14603
G1 X118.643 Y101.174 E24.17693
G1 X115.391 Y101.174 E24.71994
G1 X115.182 Y101.359 E24.76655
G1 X111.768 Y101.359 E25.33686
G1 X111.768 Y101.174 E25.36776
G1 X101.642 Y101.174 E27.05896
G1 X101.433 Y101.359 E27.10557
G1 X98.018 Y101.359 E27.67590
G1 X98.018 Y101.174 E27.70680
G1 X94.767 Y101.174 E28.24978
G1 X94.558 Y101.359 E28.29640
G1 X91.143 Y101.359 E28.86673
G1 X91.143 Y101.174 E28.89763
G1 X81.464 Y101.174 E30.51410
G1 X81.712 Y100.411 E30.64806
G1 X81.792 Y99.993 E30.71925
G1 X81.819 Y99.567 E30.79050
G1 X81.792 Y99.141 E30.86175
G1 X81.712 Y98.722 E30.93295
G1 X81.487 Y98.031 E31.05438
G1 X79.407 Y97.067 F15000.000
G1 X124.077 Y97.067 E38.51484 F403.200
G1 X124.077 Y102.067 E39.34991
G1 X122.605 Y102.067 E39.59576
G1 X122.503 Y102.157 E39.61842
G1 X122.137 Y102.252 E39.68156
G1 X117.750 Y102.252 E40.41431
G1 X117.750 Y102.067 E40.44520
G1 X115.730 Y102.067 E40.78260
G1 X115.628 Y102.157 E40.80526
G1 X115.262 Y102.252 E40.86840
G1 X110.875 Y102.252 E41.60115
G1 X110.875 Y102.067 E41.63204
G1 X101.980 Y102.067 E43.11764
G1 X101.878 Y102.157 E43.14030
G1 X101.512 Y102.252 E43.20345
G1 X97.125 Y102.252 E43.93620
G1 X97.125 Y102.067 E43.96710
G1 X95.105 Y102.067 E44.30448
G1 X95.003 Y102.157 E44.32714
G1 X94.637 Y102.252 E44.39029
G1 X90.250 Y102.252 E45.12304
G1 X90.250 Y102.067 E45.15393
G1 X79.407 Y102.067 E46.96484
G1 X80.246 Y101.279 E47.15709
G1 X80.446 Y101.037 E47.20954
G1 X80.615 Y100.772 E47.26200
G1 X80.748 Y100.488 E47.31446
G1 X80.845 Y100.189 E47.36690
G1 X80.904 Y99.880 E47.41935
G1 X80.924 Y99.567 E47.47182
G1 X80.904 Y99.253 E47.52429
G1 X80.845 Y98.945 E47.57673
G1 X80.748 Y98.646 E47.62918
G1 X80.615 Y98.362 E47.68163
G1 X80.446 Y98.097 E47.73410
G1 X80.246 Y97.855 E47.78655
G1 X79.462 Y97.118 E47.96627
G1 X79.891 Y97.191 F15000.000
G1 E45.96627 F1800.000
G92 E0
G1 X89.225 Y103.965 F15000.000
G1 E2.00000 F1800.000
G1 X83.914 Y103.965 E2.88704 F403.200
G1 X83.658 Y103.944 E2.92986
G1 X83.394 Y103.203 E3.06115
G1 X83.394 Y102.567 E3.16741
G1 X79.094 Y101.571 F15000.000
G1 X78.549 Y101.826 E3.26793 F403.200
G1 X77.990 Y102.027 E3.36708
G1 X77.621 Y101.933 E3.43066
G1 X77.359 Y101.828 E3.47783
G1 X77.084 Y101.677 E3.53025
G1 X76.830 Y101.493 E3.58268
G1 X76.601 Y101.278 E3.63510
G1 X76.401 Y101.036 E3.68752
G1 X76.233 Y100.771 E3.73995
G1 X76.099 Y100.487 E3.79238
G1 X76.002 Y100.188 E3.84480
G1 X75.943 Y99.880 E3.89722
G1 X75.924 Y99.567 E3.94965
G1 X75.943 Y99.254 E4.00207
G1 X76.002 Y98.945 E4.05449
G1 X76.099 Y98.647 E4.10691
G1 X76.233 Y98.363 E4.15934
G1 X76.401 Y98.098 E4.21177
G1 X76.601 Y97.856 E4.26419
G1 X76.830 Y97.641 E4.31662
G1 X77.084 Y97.456 E4.36904
G1 X77.359 Y97.305 E4.42146
G1 X77.621 Y97.201 E4.46864
G1 X77.990 Y97.107 E4.53221
G1 X78.549 Y97.308 E4.63136
G1 X79.085 Y97.579 E4.73173
G1 X80.657 Y97.567 F15000.000
G1 X80.852 Y97.802 F15000.000
G1 X81.054 Y98.121 F15000.000
G1 X81.214 Y98.462 F15000.000
G1 X81.331 Y98.820 F15000.000
G1 X81.401 Y99.191 F15000.000
G1 X81.425 Y99.567 F15000.000
G1 X81.401 Y99.943 F15000.000
G1 X81.331 Y100.313 F15000.000
G1 X81.214 Y100.672 F15000.000
G1 X81.054 Y101.013 F15000.000
G1 X80.852 Y101.331 F15000.000
G1 X80.657 Y101.567 F15000.000
G1 X90.750 Y101.567 F15000.000
G1 X90.750 Y101.752 F15000.000
G1 X94.573 Y101.752 F15000.000
G1 X94.762 Y101.703 F15000.000
G1 X94.915 Y101.567 F15000.000
G1 X97.625 Y101.567 F15000.000
G1 X97.625 Y101.752 F15000.000
G1 X101.448 Y101.752 F15000.000
G1 X101.637 Y101.703 F15000.000
G1 X101.790 Y101.567 F15000.000
G1 X111.375 Y101.567 F15000.000
G1 X111.375 Y101.752 F15000.000
G1 X115.198 Y101.752 F15000.000
G1 X115.387 Y101.703 F15000.000
G1 X115.540 Y101.567 F15000.000
G1 X118.250 Y101.567 F15000.000
G1 X117.250 Y95.639 F15000.000
G1 X118.257 Y95.379 E4.90545 F403.200
G1 X118.650 Y95.329 E4.97159
G1 X122.201 Y95.341 E5.56469
G1 X122.389 Y95.377 E5.59657
G1 X122.633 Y95.537 E5.64533
G1 X123.600 Y96.536 E5.87750
G1 X123.577 Y97.567 F15000.000
G1 X123.577 Y101.567 F15000.000
G1 X122.415 Y101.567 F15000.000
G1 X122.262 Y101.703 F15000.000
G1 X122.073 Y101.752 F15000.000
G1 X118.250 Y101.752 F15000.000
G1 X118.250 Y101.567 F15000.000
G1 X115.540 Y101.567 F15000.000
G1 X116.725 Y95.329 F15000.000
G1 X111.872 Y95.329 E6.68795 F403.200
G1 X111.775 Y94.567 E6.81633
G1 E4.81633 F1800.000
G92 E0
G1 X111.375 Y101.567 F15000.000
G1 X109.850 Y95.329 F15000.000
G1 E2.00000 F1800.000
G1 X103.500 Y95.329 E3.06054 F403.200
G1 E1.06054 F1800.000
G92 E0
G1 X101.790 Y101.567 F15000.000
G1 X101.637 Y101.703 F15000.000
G1 X101.448 Y101.752 F15000.000
G1 X97.625 Y101.752 F15000.000
G1 X97.625 Y101.567 F15000.000
G1 X96.625 Y95.639 F15000.000
G1 E2.00000 F1800.000
G1 X97.632 Y95.379 E2.17372 F403.200
G1 X98.025 Y95.329 E2.23986
G1 X101.576 Y95.341 E2.83297
G1 X101.764 Y95.377 E2.86483
G1 X102.008 Y95.537 E2.91360
G1 X102.975 Y96.536 E3.14578
G1 X101.790 Y101.567 F15000.000
G1 X101.637 Y101.703 F15000.000
G1 X101.448 Y101.752 F15000.000
G1 X97.625 Y101.752 F15000.000
G1 X97.625 Y101.567 F15000.000
G1 X94.915 Y101.567 F15000.000
G1 X96.100 Y95.329 F15000.000
G1 X91.247 Y95.329 E3.95623 F403.200
G1 X91.150 Y94.567 E4.08461
G1 E2.08461 F1800.000
G92 E0
G1 X83.303 Y99.449 F15000.000
G1 X83.160 Y99.567 F15000.000
G1 E2.00000 F1800.000
G1 X92.482 Y99.567 E2.68484 F360.000
G1 X92.797 Y99.659 E2.70897
G1 X93.913 Y99.659 E2.79100
G1 X94.056 Y99.605 E2.80219
G1 X94.259 Y99.567 E2.81740
G1 X99.357 Y99.567 E3.19191
G1 X99.672 Y99.659 E3.21604
G1 X100.788 Y99.659 E3.29807
G1 X100.931 Y99.605 E3.30926
G1 X101.134 Y99.567 E3.32446
G1 X113.107 Y99.567 E4.20409
G1 X113.422 Y99.659 E4.22821
G1 X114.538 Y99.659 E4.31022
G1 X114.680 Y99.605 E4.32140
G1 X114.884 Y99.567 E4.33661
G1 X119.982 Y99.567 E4.71116
G1 X120.297 Y99.659 E4.73528
G1 X121.413 Y99.659 E4.81729
G1 X121.845 Y99.496 E4.85124
M106 S255
G1 E2.85124 F1800.000
G92 E0
G1 Z0.800 F15000.000
G1 X122.687 Y96.817 F15000.000
G1 E2.00000 F1800.000
G1 X118.163 Y96.817 E2.22127 F911.910
G1 X118.163 Y96.363 E2.24347
G1 X118.275 Y96.012 E2.26147
G1 X118.586 Y95.841 E2.27884
G1 X122.266 Y95.841 E2.45881
G1 X122.575 Y96.013 E2.47612
G1 X122.687 Y96.363 E2.49410
G1 X122.687 Y96.742 E2.51263
G1 X122.687 Y97.317 F15000.000
G1 X115.812 Y96.817 F15000.000
G1 X111.288 Y96.817 E2.73390 F911.910
G1 X111.288 Y96.363 E2.75611
G1 X111.400 Y96.012 E2.77414
G1 X111.711 Y95.842 E2.79148
G1 X115.812 Y95.842 E2.99203
G1 X115.812 Y96.742 E3.03604
G1 X115.812 Y97.317 F15000.000
G1 X102.062 Y96.817 F15000.000
G1 X97.537 Y96.817 E3.25731 F911.910
G1 X97.537 Y96.363 E3.27951
G1 X97.650 Y96.012 E3.29751
G1 X97.961 Y95.841 E3.31488
G1 X101.641 Y95.841 E3.49485
G1 X101.950 Y96.013 E3.51216
G1 X102.062 Y96.363 E3.53014
G1 X102.062 Y96.742 E3.54867
G1 X102.062 Y97.317 F15000.000
G1 X95.187 Y96.817 F15000.000
G1 X90.663 Y96.817 E3.76994 F911.910
G1 X90.663 Y96.363 E3.79215
G1 X90.775 Y96.012 E3.81018
G1 X91.086 Y95.842 E3.82752
G1 X95.187 Y95.842 E4.02807
G1 X95.187 Y96.742 E4.07208
G1 X95.187 Y97.317 F15000.000
G1 X80.656 Y99.285 F15000.000
G1 X80.674 Y99.567 E4.08590 F911.910
G1 X80.656 Y99.849 E4.09972
G1 X80.603 Y100.127 E4.11354
G1 X80.516 Y100.395 E4.12736
G1 X80.395 Y100.651 E4.14118
G1 X80.244 Y100.890 E4.15500
G1 X80.064 Y101.107 E4.16882
G1 X79.858 Y101.301 E4.18264
G1 X79.629 Y101.467 E4.19646
G1 X79.381 Y101.603 E4.21028
G1 X79.119 Y101.707 E4.22410
G1 X78.845 Y101.777 E4.23792
G1 X78.564 Y101.813 E4.25174
G1 X78.282 Y101.813 E4.26556
G1 X78.001 Y101.778 E4.27938
G1 X77.728 Y101.707 E4.29320
G1 X77.465 Y101.603 E4.30702
G1 X77.217 Y101.467 E4.32084
G1 X76.989 Y101.301 E4.33466
G1 X76.782 Y101.107 E4.34848
G1 X76.602 Y100.890 E4.36230
G1 X76.451 Y100.651 E4.37612
G1 X76.331 Y100.395 E4.38994
G1 X76.243 Y100.127 E4.40376
G1 X76.190 Y99.849 E4.41758
G1 X76.173 Y99.567 E4.43140
G1 X76.190 Y99.285 E4.44522
G1 X76.243 Y99.007 E4.45904
G1 X76.331 Y98.738 E4.47286
G1 X76.451 Y98.483 E4.48668
G1 X76.602 Y98.244 E4.50050
G1 X76.782 Y98.026 E4.51432
G1 X76.989 Y97.833 E4.52814
G1 X77.217 Y97.667 E4.54196
G1 X77.465 Y97.531 E4.55578
G1 X77.728 Y97.427 E4.56960
G1 X78.001 Y97.356 E4.58342
G1 X78.282 Y97.321 E4.59724
G1 X78.564 Y97.321 E4.61106
G1 X78.775 Y97.347 E4.62145
G1 X79.119 Y97.427 E4.63868 F911.910
G1 X79.381 Y97.531 E4.65250
G1 X79.629 Y97.667 E4.66632
G1 X79.858 Y97.833 E4.68014
G1 X80.064 Y98.026 E4.69396
G1 X80.244 Y98.244 E4.70778
G1 X80.395 Y98.483 E4.72160
G1 X80.516 Y98.738 E4.73542
G1 X80.603 Y99.007 E4.74924
G1 X80.642 Y99.211 E4.75939
G1 E2.75939 F1800.000
G92 E0
G1 X78.731 Y96.998 F15000.000
G1 X81.542 Y98.016 F15000.000
G1 E2.00000 F1800.000
G1 X123.127 Y98.016 E5.05523 F1302.728
G1 X123.127 Y101.117 E5.28305
G1 X122.245 Y101.117 E5.34789
G1 X122.036 Y101.302 E5.36839
G1 X118.700 Y101.302 E5.61351
G1 X118.700 Y101.117 E5.62711
G1 X115.370 Y101.117 E5.87174
G1 X115.161 Y101.302 E5.89224
G1 X111.825 Y101.302 E6.13736
G1 X111.825 Y101.117 E6.15095
G1 X101.620 Y101.117 E6.90067
G1 X101.411 Y101.302 E6.92118
G1 X98.075 Y101.302 E7.16631
G1 X98.075 Y101.117 E7.17990
G1 X94.745 Y101.117 E7.42451
G1 X94.536 Y101.302 E7.44502
G1 X91.200 Y101.302 E7.69015
G1 X91.200 Y101.117 E7.70374
G1 X81.542 Y101.117 E8.41326
G1 X81.767 Y100.426 E8.46670
G1 X81.848 Y100.000 E8.49855
G1 X81.876 Y99.567 E8.53042
G1 X81.848 Y99.134 E8.56228
G1 X81.767 Y98.708 E8.59413
G1 X81.565 Y98.088 E8.64206
G1 X80.221 Y97.362 F15000.000
G1 X123.782 Y97.362 E11.84242 F1302.728
G1 X123.782 Y101.772 E12.16641
G1 X122.493 Y101.772 E12.26110
G1 X122.361 Y101.889 E12.27409
G1 X122.100 Y101.957 E12.29390
G1 X118.045 Y101.957 E12.59179
G1 X118.045 Y101.772 E12.60538
G1 X115.618 Y101.772 E12.78370
G1 X115.486 Y101.889 E12.79669
G1 X115.225 Y101.957 E12.81650
G1 X111.170 Y101.957 E13.11438
G1 X111.170 Y101.772 E13.12798
G1 X101.868 Y101.772 E13.81139
G1 X101.736 Y101.889 E13.82438
G1 X101.475 Y101.957 E13.84419
G1 X97.420 Y101.957 E14.14208
G1 X97.420 Y101.772 E14.15567
G1 X94.993 Y101.772 E14.33398
G1 X94.861 Y101.889 E14.34697
G1 X94.600 Y101.957 E14.36678
G1 X90.545 Y101.957 E14.66467
G1 X90.545 Y101.772 E14.67827
G1 X80.221 Y101.772 E15.43674
G1 X80.686 Y101.211 E15.49024
G1 X80.874 Y100.914 E15.51605
G1 X81.023 Y100.596 E15.54186
G1 X81.132 Y100.262 E15.56765
G1 X81.198 Y99.917 E15.59345
G1 X81.220 Y99.567 E15.61926
G1 X81.198 Y99.216 E15.64507
G1 X81.132 Y98.871 E15.67087
G1 X81.023 Y98.537 E15.69666
G1 X80.874 Y98.220 E15.72247
G1 X80.686 Y97.923 E15.74827
G1 X80.269 Y97.420 E15.79627
G1 X83.125 Y96.817 F15000.000
G1 X83.125 Y94.817 E15.89407 F911.910
G1 X83.664 Y94.817 E15.92041
G1 X83.664 Y96.817 E16.01821
G1 X90.000 Y96.817 E16.32805
G1 X90.000 Y96.421 E16.34743
G1 X90.099 Y95.767 E16.37974
G1 X90.360 Y95.259 E16.40766
G1 X90.727 Y94.935 E16.43162
G1 X91.182 Y94.817 E16.45461
G1 X95.850 Y94.817 E16.68287
G1 X95.850 Y96.817 E16.78067
G1 X96.875 Y96.817 E16.83080
G1 X96.875 Y94.817 E16.92860
G1 X101.544 Y94.817 E17.15692
G1 X101.999 Y94.935 E17.17990
G1 X102.365 Y95.259 E17.20382
G1 X102.626 Y95.767 E17.23175
G1 X102.725 Y96.421 E17.26406
G1 X102.725 Y96.817 E17.28344
G1 X103.750 Y96.817 E17.33356
G1 X103.750 Y94.817 E17.43136
G1 X109.600 Y94.817 E17.71742
G1 X109.600 Y95.842 E17.76754
G1 X104.202 Y95.842 E18.03148
G1 X104.202 Y96.817 E18.07916
G1 X110.625 Y96.817 E18.39321
G1 X110.625 Y96.421 E18.41259
G1 X110.724 Y95.767 E18.44490
G1 X110.985 Y95.259 E18.47282
G1 X111.352 Y94.935 E18.49679
G1 X111.807 Y94.817 E18.51977
G1 X116.475 Y94.817 E18.74804
G1 X116.475 Y96.817 E18.84584
G1 X117.500 Y96.817 E18.89596
G1 X117.500 Y94.817 E18.99376
G1 X122.169 Y94.817 E19.22209
G1 X122.624 Y94.935 E19.24507
G1 X122.990 Y95.259 E19.26898
G1 X123.251 Y95.767 E19.29691
G1 X123.350 Y96.421 E19.32923
G1 X123.350 Y96.817 E19.34860
G1 X124.327 Y96.817 E19.39637
G1 X124.327 Y102.317 E19.66532
G1 X122.700 Y102.317 E19.74490
G1 X122.624 Y102.384 E19.74983
G1 X122.169 Y102.502 E19.77281
G1 X118.163 Y102.502 E19.96874
G1 X118.163 Y105.183 E20.09985
G1 X117.500 Y105.183 E20.13224
G1 X117.500 Y102.317 E20.27240
G1 X115.825 Y102.317 E20.35433
G1 X115.749 Y102.384 E20.35926
G1 X115.294 Y102.502 E20.38224
G1 X110.625 Y102.502 E20.61056
G1 X110.625 Y102.317 E20.61961
G1 X104.202 Y102.317 E20.93367
G1 X104.202 Y104.492 E21.04002
G1 X103.750 Y104.492 E21.06215
G1 X103.750 Y102.317 E21.16851
G1 X102.075 Y102.317 E21.25043
G1 X101.999 Y102.384 E21.25536
G1 X101.544 Y102.502 E21.27834
G1 X97.537 Y102.502 E21.47427
G1 X97.537 Y105.183 E21.60539
G1 X96.875 Y105.183 E21.63778
G1 X96.875 Y102.317 E21.77794
G1 X95.200 Y102.317 E21.85986
G1 X95.124 Y102.384 E21.86479
G1 X94.669 Y102.502 E21.88777
G1 X90.000 Y102.502 E22.11610
G1 X90.000 Y102.317 E22.12515
G1 X83.664 Y102.317 E22.43499
G1 X83.664 Y103.453 E22.49055
G1 X88.975 Y103.453 E22.75026
G1 X88.975 Y104.477 E22.80032
G1 X83.125 Y104.477 E23.08639
G1 X83.125 Y102.317 E23.19201
G1 X78.250 Y102.311 E23.43037
G1 X77.908 Y102.268 E23.44726
G1 X77.573 Y102.182 E23.46414
G1 X77.252 Y102.055 E23.48103
G1 X76.950 Y101.888 E23.49791
G1 X76.670 Y101.685 E23.51480
G1 X76.419 Y101.449 E23.53168
G1 X76.199 Y101.183 E23.54856
G1 X76.014 Y100.891 E23.56545
G1 X75.867 Y100.579 E23.58233
G1 X75.760 Y100.251 E23.59922
G1 X75.695 Y99.911 E23.61610
