; generated by Slic3r 1.2.1-dev on 2014-11-08 at 04:05:39

; external perimeters extrusion width = 0.50mm
; perimeters extrusion width = 0.72mm
; infill extrusion width = 0.72mm
; solid infill extrusion width = 0.72mm
; top infill extrusion width = 0.72mm

M107
M104 S200 ; set temperature
G28 ; home all axes
G1 Z5 F5000 ; lift nozzle

M109 S200 ; wait for temperature to be reached
G21 ; set units to millimeters
G90 ; use absolute coordinates
M82 ; use absolute distances for extrusion
G92 E0
G1 E-1.00000 F1800.000
G92 E0
G1 Z0.350 F7800.000
G1 X72.617 Y91.896 F7800.000
G1 E1.00000 F1800.000
G1 X72.904 Y91.687 E1.01098 F1080.000
G1 X73.624 Y91.229 E1.03738
G1 X73.935 Y91.058 E1.04836
G1 X74.691 Y90.699 E1.07426
G1 X80.420 Y88.414 E1.26512
G1 X82.875 Y87.942 E1.34246
G1 X122.201 Y87.942 E2.55926
G1 X123.867 Y88.155 E2.61121
G1 X124.411 Y88.296 E2.62861 F1080.000
G1 X127.136 Y89.747 E2.72413
G1 X127.566 Y90.128 E2.74193
G1 X128.002 Y90.549 E2.76067
G1 X129.388 Y92.013 E2.82303
G1 X130.653 Y93.926 E2.89399
G1 X131.202 Y96.567 E2.97746
G1 X131.202 Y102.567 E3.16311
G1 X130.805 Y104.826 E3.23407
G1 X129.661 Y106.814 E3.30503
G1 X127.370 Y108.574 E3.39443
G1 X121.206 Y111.440 E3.60478
G1 X118.413 Y112.058 E3.69329
G1 X96.285 Y112.049 E4.37794
G1 X82.535 Y111.343 E4.80394
G1 X80.274 Y110.820 E4.87575
G1 X73.954 Y108.087 E5.08882
G1 X72.922 Y107.460 E5.12618
G1 X71.975 Y106.707 E5.16358
G1 X71.132 Y105.844 E5.20093
G1 X70.402 Y104.879 E5.23837
G1 X69.800 Y103.834 E5.27567
G1 X69.333 Y102.718 E5.31310
G1 X69.010 Y101.555 E5.35047
G1 X68.835 Y100.358 E5.38790
G1 X68.811 Y99.152 E5.42522
G1 X68.833 Y98.797 E5.43621
G1 X68.939 Y97.949 E5.46265
G1 X69.006 Y97.600 E5.47364
G1 X69.217 Y96.774 E5.50003
G1 X69.326 Y96.436 E5.51102
G1 X69.640 Y95.640 E5.53749
G1 X69.791 Y95.319 E5.54847
G1 X70.200 Y94.573 E5.57481
G1 X70.892 Y93.580 E5.61225
G1 X71.701 Y92.684 E5.64959
G1 X72.560 Y91.945 E5.68467
G1 E4.68467 F1800.000
G92 E0
G1 X83.225 Y103.553 F7800.000
G1 E1.00000 F1800.000
G1 X88.875 Y103.553 E1.17482 F378.000
G1 X88.875 Y104.377 E1.20031
G1 X83.225 Y104.377 E1.37512
G1 X83.225 Y103.628 E1.39829
G1 X83.658 Y103.803 F7800.000
G1 E0.39829 F1800.000
G92 E0
G1 X81.749 Y100.967 F7800.000
G1 E1.00000 F1800.000
G1 X81.913 Y100.463 E1.01640 F540.000
G1 X81.998 Y100.019 E1.03040
G1 X82.026 Y99.567 E1.04440
G1 X81.998 Y99.115 E1.05841
G1 X81.913 Y98.671 E1.07240
G1 X81.749 Y98.167 E1.08881
G1 X122.977 Y98.167 E2.36446
G1 X122.977 Y100.967 E2.45111
G1 X122.188 Y100.967 E2.47553
G1 X121.979 Y101.152 E2.48416
G1 X118.850 Y101.152 E2.58098
G1 X118.850 Y100.967 E2.58671
G1 X115.313 Y100.967 E2.69615
G1 X115.104 Y101.152 E2.70478
G1 X111.975 Y101.152 E2.80160
G1 X111.975 Y100.967 E2.80732
G1 X101.563 Y100.967 E3.12947
G1 X101.354 Y101.152 E3.13811
G1 X98.225 Y101.152 E3.23494
G1 X98.225 Y100.967 E3.24066
G1 X94.688 Y100.967 E3.35009
G1 X94.479 Y101.152 E3.35873
G1 X91.350 Y101.152 E3.45555
G1 X91.350 Y100.967 E3.46128
G1 X81.824 Y100.967 E3.75602
G1 X80.657 Y101.592 F7800.000
G1 X81.032 Y101.001 E3.77768 F540.000
G1 X81.191 Y100.663 E3.78925
G1 X81.306 Y100.307 E3.80081
G1 X81.376 Y99.940 E3.81237
G1 X81.400 Y99.567 E3.82394
G1 X81.376 Y99.194 E3.83551
G1 X81.306 Y98.827 E3.84708
G1 X81.191 Y98.471 E3.85864
G1 X81.032 Y98.133 E3.87021
G1 X80.657 Y97.542 E3.89187
G1 X123.602 Y97.542 E5.22066
G1 X123.602 Y101.592 E5.34598
G1 X122.425 Y101.592 E5.38240
G1 X122.274 Y101.726 E5.38865
G1 X122.077 Y101.777 E5.39495
G1 X118.225 Y101.777 E5.51413
G1 X118.225 Y101.592 E5.51985
G1 X115.550 Y101.592 E5.60262
G1 X115.399 Y101.726 E5.60887
G1 X115.202 Y101.777 E5.61516
G1 X111.350 Y101.777 E5.73434
G1 X111.350 Y101.592 E5.74007
G1 X101.800 Y101.592 E6.03555
G1 X101.649 Y101.726 E6.04180
G1 X101.452 Y101.777 E6.04810
G1 X97.600 Y101.777 E6.16728
G1 X97.600 Y101.592 E6.17301
G1 X94.925 Y101.592 E6.25577
G1 X94.774 Y101.726 E6.26202
G1 X94.577 Y101.777 E6.26832
G1 X90.725 Y101.777 E6.38750
G1 X90.725 Y101.592 E6.39322
G1 X80.732 Y101.592 E6.70243
G1 X79.129 Y101.811 F7800.000
G1 X79.424 Y101.694 E6.71225 F378.000
G1 X79.683 Y101.552 E6.72138
G1 X79.921 Y101.378 E6.73051
G1 X80.137 Y101.176 E6.73965
G1 X80.325 Y100.949 E6.74878
G1 X80.483 Y100.699 E6.75792
G1 X80.609 Y100.432 E6.76705
G1 X80.700 Y100.151 E6.77618
G1 X80.755 Y99.862 E6.78532
G1 X80.774 Y99.567 E6.79445
G1 X80.755 Y99.272 E6.80359
G1 X80.700 Y98.982 E6.81272
G1 X80.609 Y98.702 E6.82185
G1 X80.483 Y98.434 E6.83099
G1 X80.325 Y98.185 E6.84012
G1 X80.137 Y97.958 E6.84926
G1 X79.921 Y97.756 E6.85839
G1 X79.683 Y97.582 E6.86753
G1 X79.424 Y97.440 E6.87666
G1 X79.129 Y97.323 E6.88648
G1 X79.206 Y96.917 E6.89927
G1 X124.227 Y96.917 E8.29226
G1 X124.227 Y102.217 E8.45625
G1 X122.662 Y102.217 E8.50468
G1 X122.576 Y102.293 E8.50823
G1 X122.156 Y102.402 E8.52164
G1 X117.600 Y102.402 E8.66262
G1 X117.600 Y102.217 E8.66835
G1 X115.787 Y102.217 E8.72445
G1 X115.701 Y102.293 E8.72800
G1 X115.281 Y102.402 E8.74141
G1 X110.725 Y102.402 E8.88239
G1 X110.725 Y102.217 E8.88811
G1 X102.037 Y102.217 E9.15694
G1 X101.951 Y102.293 E9.16049
G1 X101.532 Y102.402 E9.17389
G1 X96.975 Y102.402 E9.31488
G1 X96.975 Y102.217 E9.32060
G1 X95.162 Y102.217 E9.37671
G1 X95.076 Y102.293 E9.38026
G1 X94.657 Y102.402 E9.39366
G1 X90.100 Y102.402 E9.53465
G1 X90.100 Y102.217 E9.54037
G1 X79.206 Y102.217 E9.87743
G1 X79.143 Y101.884 E9.88791
G1 X79.439 Y101.877 F7800.000
G1 E8.88791 F1800.000
G92 E0
G1 X117.600 Y96.405 F7800.000
G1 E1.00000 F1800.000
G1 X117.600 Y94.917 E1.04605 F378.000
G1 X122.156 Y94.917 E1.18704
G1 X122.576 Y95.026 E1.20044
G1 X122.910 Y95.322 E1.21425
G1 X123.167 Y95.821 E1.23163
G1 X123.209 Y96.154 E1.24202
G1 X122.759 Y96.259 E1.25629
G1 X122.659 Y95.945 E1.26652
G1 X122.292 Y95.741 E1.27950
G1 X118.560 Y95.741 E1.39498
G1 X118.192 Y95.944 E1.40799
G1 X118.023 Y96.471 E1.42512
G1 X117.674 Y96.417 E1.43605
G1 X117.872 Y95.986 F7800.000
G1 E0.43605 F1800.000
G92 E0
G1 X102.584 Y96.154 F7800.000
G1 E1.00000 F1800.000
G1 X102.134 Y96.259 E1.01428 F378.000
G1 X102.034 Y95.945 E1.02450
G1 X101.667 Y95.741 E1.03748
G1 X97.935 Y95.741 E1.15296
G1 X97.567 Y95.944 E1.16598
G1 X97.398 Y96.471 E1.18311
G1 X96.975 Y96.405 E1.19635
G1 X96.975 Y94.917 E1.24240
G1 X101.532 Y94.917 E1.38339
G1 X101.951 Y95.026 E1.39679
G1 X102.285 Y95.322 E1.41060
G1 X102.542 Y95.821 E1.42797
G1 X102.572 Y96.080 E1.43604
G1 X102.147 Y96.005 F7800.000
G1 E0.43604 F1800.000
G92 E0
G1 X95.750 Y95.742 F7800.000
G1 E1.00000 F1800.000
G1 X91.061 Y95.742 E1.14509 F378.000
G1 X90.692 Y95.943 E1.15809
G1 X90.591 Y96.259 E1.16837
G1 X90.141 Y96.154 E1.18264
G1 X90.185 Y95.817 E1.19317
G1 X90.440 Y95.322 E1.21039
G1 X90.775 Y95.026 E1.22423
G1 X91.195 Y94.917 E1.23764
G1 X95.750 Y94.917 E1.37859
G1 X95.750 Y95.667 E1.40179
G1 X95.317 Y95.492 F7800.000
G1 E0.40179 F1800.000
G92 E0
G1 X110.766 Y96.154 F7800.000
G1 E1.00000 F1800.000
G1 X110.810 Y95.817 E1.01052 F378.000
G1 X111.065 Y95.322 E1.02775
G1 X111.400 Y95.026 E1.04159
G1 X111.820 Y94.917 E1.05500
G1 X116.375 Y94.917 E1.19594
G1 X116.375 Y95.742 E1.22147
G1 X111.686 Y95.742 E1.36656
G1 X111.317 Y95.943 E1.37956
G1 X111.216 Y96.259 E1.38984
G1 X110.839 Y96.171 E1.40179
G1 X110.982 Y95.891 F7800.000
G1 X109.500 Y95.742 F7800.000
G1 X103.850 Y95.742 E1.57661 F378.000
G1 X103.850 Y94.917 E1.60214
G1 X109.500 Y94.917 E1.77696
G1 X109.500 Y95.667 E1.80016
G1 X109.067 Y95.492 F7800.000
G1 E0.80016 F1800.000
G92 E0
G1 X117.831 Y105.433 F7800.000
G1 E1.00000 F1800.000
G1 X117.831 Y102.752 E1.08296 F378.000
G1 E0.08296 F1800.000
G92 E0
G1 X97.206 Y105.433 F7800.000
G1 E1.00000 F1800.000
G1 X97.206 Y102.752 E1.08296 F378.000
G1 E0.08296 F1800.000
G92 E0
G1 X78.821 Y102.062 F7800.000
G1 E1.00000 F1800.000
G1 X78.266 Y102.061 E1.01715 F378.000
G1 X77.955 Y102.022 E1.02687
G1 X77.651 Y101.944 E1.03658
G1 X77.331 Y101.814 E1.04726
G1 X77.084 Y101.677 E1.05600
G1 X76.830 Y101.493 E1.06571
G1 X76.601 Y101.278 E1.07542
G1 X76.401 Y101.036 E1.08513
G1 X76.233 Y100.771 E1.09485
G1 X76.112 Y100.516 E1.10359
G1 X75.996 Y100.158 E1.11523
G1 X75.943 Y99.880 E1.12397
G1 X75.924 Y99.567 E1.13368
G1 X75.943 Y99.254 E1.14340
G1 X75.996 Y98.976 E1.15214
G1 X76.112 Y98.618 E1.16378
G1 X76.233 Y98.363 E1.17252
G1 X76.401 Y98.098 E1.18223
G1 X76.601 Y97.856 E1.19195
G1 X76.830 Y97.641 E1.20166
G1 X77.084 Y97.456 E1.21137
G1 X77.331 Y97.320 E1.22011
G1 X77.651 Y97.190 E1.23079
G1 X77.955 Y97.112 E1.24050
G1 X78.832 Y97.010 E1.26784
G1 X82.347 Y100.497 F7800.000
G1 X82.384 Y100.534 E1.26946 F1080.000
G1 X83.279 Y100.534 E1.29715
G1 X82.451 Y99.706 E1.33337
G1 X82.364 Y98.724 E1.36388
G1 X84.174 Y100.534 E1.44308
G1 X85.069 Y100.534 E1.47077
G1 X83.134 Y98.600 E1.55541
G1 X84.029 Y98.600 E1.58310
G1 X85.963 Y100.534 E1.66774
G1 X86.858 Y100.534 E1.69543
G1 X84.924 Y98.600 E1.78007
G1 X85.818 Y98.600 E1.80776
G1 X87.753 Y100.534 E1.89240
G1 X88.648 Y100.534 E1.92009
G1 X86.713 Y98.600 E2.00473
G1 X87.608 Y98.600 E2.03242
G1 X89.542 Y100.534 E2.11706
G1 X90.437 Y100.534 E2.14475
G1 X88.503 Y98.600 E2.22939
G1 X89.398 Y98.600 E2.25708
G1 X91.332 Y100.534 E2.34172
G1 X92.412 Y100.719 E2.37562
G1 X90.292 Y98.600 E2.46836
G1 X91.187 Y98.600 E2.49604
G1 X93.306 Y100.719 E2.58878
G1 X94.201 Y100.719 E2.61647
G1 X92.082 Y98.600 E2.70921
G1 X92.977 Y98.600 E2.73689
G1 X94.911 Y100.534 E2.82154
G1 X95.806 Y100.534 E2.84922
G1 X93.871 Y98.600 E2.93387
G1 X94.766 Y98.600 E2.96155
G1 X96.701 Y100.534 E3.04620
G1 X97.595 Y100.534 E3.07388
G1 X95.661 Y98.600 E3.15853
G1 X96.556 Y98.600 E3.18621
G1 X98.675 Y100.719 E3.27895
G1 X99.570 Y100.719 E3.30664
G1 X97.450 Y98.600 E3.39938
G1 X98.345 Y98.600 E3.42706
G1 X100.465 Y100.719 E3.51980
G1 X101.280 Y100.640 E3.54514
G1 X99.240 Y98.600 E3.63440
G1 X100.135 Y98.600 E3.66209
G1 X102.069 Y100.534 E3.74673
G1 X102.964 Y100.534 E3.77442
G1 X101.030 Y98.600 E3.85906
G1 X101.924 Y98.600 E3.88675
G1 X103.859 Y100.534 E3.97139
G1 X104.754 Y100.534 E3.99908
G1 X102.819 Y98.600 E4.08372
G1 X103.714 Y98.600 E4.11141
G1 X105.648 Y100.534 E4.19605
G1 X106.543 Y100.534 E4.22374
G1 X104.609 Y98.600 E4.30838
G1 X105.503 Y98.600 E4.33607
G1 X107.438 Y100.534 E4.42071
G1 X108.333 Y100.534 E4.44840
G1 X106.398 Y98.600 E4.53304
G1 X107.293 Y98.600 E4.56073
G1 X109.227 Y100.534 E4.64537
G1 X110.122 Y100.534 E4.67306
G1 X108.188 Y98.600 E4.75770
G1 X109.083 Y98.600 E4.78539
G1 X111.017 Y100.534 E4.87003
G1 X111.912 Y100.534 E4.89772
G1 X109.977 Y98.600 E4.98236
G1 X110.872 Y98.600 E5.01005
G1 X112.991 Y100.719 E5.10279
G1 X113.886 Y100.719 E5.13047
G1 X111.767 Y98.600 E5.22321
G1 X112.662 Y98.600 E5.25090
G1 X114.781 Y100.719 E5.34364
G1 X115.491 Y100.534 E5.36633
G1 X113.556 Y98.600 E5.45098
G1 X114.451 Y98.600 E5.47866
G1 X116.386 Y100.534 E5.56331
G1 X117.280 Y100.534 E5.59099
G1 X115.346 Y98.600 E5.67564
G1 X116.241 Y98.600 E5.70332
G1 X118.175 Y100.534 E5.78797
G1 X119.070 Y100.534 E5.81565
G1 X117.135 Y98.600 E5.90030
G1 X118.030 Y98.600 E5.92798
G1 X120.150 Y100.719 E6.02072
G1 X121.044 Y100.719 E6.04841
G1 X118.925 Y98.600 E6.14115
G1 X119.820 Y98.600 E6.16883
G1 X121.881 Y100.661 E6.25901
G1 X122.544 Y100.429 E6.28075
G1 X120.715 Y98.600 E6.36081
G1 X121.609 Y98.600 E6.38849
G1 X122.544 Y99.534 E6.42940
G1 X122.544 Y98.640 E6.45708
G1 X122.504 Y98.600 E6.45883
M106 S255
G1 E5.45883 F1800.000
G92 E0
G1 Z0.650 F7800.000
G1 X122.687 Y96.817 F7800.000
G1 E1.00000 F1800.000
G1 X118.163 Y96.817 E1.08366 F899.056
G1 X118.163 Y96.363 E1.09205
G1 X118.275 Y96.012 E1.09886
G1 X118.586 Y95.841 E1.10542
G1 X122.266 Y95.841 E1.17347
G1 X122.575 Y96.013 E1.18002
G1 X122.687 Y96.363 E1.18681
G1 X122.687 Y96.742 E1.19382
G1 X122.687 Y97.317 F7800.000
G1 X115.812 Y96.817 F7800.000
G1 X111.288 Y96.817 E1.27748 F899.056
G1 X111.288 Y96.363 E1.28587
G1 X111.400 Y96.012 E1.29269
G1 X111.711 Y95.842 E1.29925
G1 X115.812 Y95.842 E1.37507
G1 X115.812 Y96.742 E1.39171
G1 X115.812 Y97.317 F7800.000
G1 X102.062 Y96.817 F7800.000
G1 X97.537 Y96.817 E1.47537 F899.056
G1 X97.537 Y96.363 E1.48377
G1 X97.650 Y96.012 E1.49057
G1 X97.961 Y95.841 E1.49714
G1 X101.641 Y95.841 E1.56518
G1 X101.950 Y96.013 E1.57173
G1 X102.062 Y96.363 E1.57852
G1 X102.062 Y96.742 E1.58553
G1 X102.062 Y97.317 F7800.000
G1 X95.187 Y96.817 F7800.000
G1 X90.663 Y96.817 E1.66919 F899.056
G1 X90.663 Y96.363 E1.67759
G1 X90.775 Y96.012 E1.68441
G1 X91.086 Y95.842 E1.69096
G1 X95.187 Y95.842 E1.76679
G1 X95.187 Y96.742 E1.78342
G1 X95.187 Y97.317 F7800.000
G1 X80.656 Y99.285 F7800.000
G1 X80.690 Y99.828 E1.79349 F899.056
G1 X80.660 Y99.828 E1.79405
G1 X80.603 Y100.127 E1.79967
G1 X80.516 Y100.395 E1.80489
G1 X80.395 Y100.651 E1.81012
G1 X80.244 Y100.890 E1.81534
G1 X80.064 Y101.107 E1.82057
G1 X79.858 Y101.301 E1.82579
G1 X79.629 Y101.467 E1.83102
G1 X79.381 Y101.603 E1.83624
G1 X79.119 Y101.707 E1.84147
G1 X78.845 Y101.778 E1.84669
G1 X78.564 Y101.813 E1.85192
G1 X78.282 Y101.813 E1.85714
G1 X78.001 Y101.778 E1.86237
G1 X77.728 Y101.707 E1.86759
G1 X77.465 Y101.603 E1.87282
G1 X77.217 Y101.467 E1.87804
G1 X76.989 Y101.301 E1.88327
G1 X76.782 Y101.107 E1.88849
G1 X76.602 Y100.890 E1.89372
G1 X76.451 Y100.651 E1.89894
G1 X76.331 Y100.395 E1.90417
G1 X76.243 Y100.127 E1.90939
G1 X76.190 Y99.849 E1.91462
G1 X76.173 Y99.567 E1.91985
G1 X76.190 Y99.285 E1.92507
G1 X76.243 Y99.007 E1.93030
G1 X76.331 Y98.738 E1.93552
G1 X76.451 Y98.483 E1.94075
G1 X76.602 Y98.244 E1.94597
G1 X76.782 Y98.026 E1.95120
G1 X76.989 Y97.833 E1.95642
G1 X77.217 Y97.667 E1.96165
G1 X77.465 Y97.531 E1.96687
G1 X77.728 Y97.427 E1.97210
G1 X78.001 Y97.356 E1.97732
G1 X78.282 Y97.321 E1.98255
G1 X78.564 Y97.321 E1.98777
G1 X78.788 Y97.349 E1.99193
G1 X79.119 Y97.427 E1.99822 F899.056
G1 X79.381 Y97.531 E2.00344
G1 X79.629 Y97.667 E2.00867
G1 X79.858 Y97.833 E2.01389
G1 X80.064 Y98.026 E2.01912
G1 X80.244 Y98.244 E2.02434
G1 X80.395 Y98.483 E2.02957
G1 X80.516 Y98.738 E2.03479
G1 X80.603 Y99.007 E2.04002
G1 X80.642 Y99.211 E2.04385
G1 E1.04385 F1800.000
G92 E0
G1 X78.746 Y97.012 F7800.000
G1 X81.542 Y98.016 F7800.000
G1 E1.00000 F1800.000
G1 X123.127 Y98.016 E2.15514 F1284.366
G1 X123.127 Y101.117 E2.24128
G1 X122.245 Y101.117 E2.26579
G1 X122.036 Y101.302 E2.27354
G1 X118.700 Y101.302 E2.36622
G1 X118.700 Y101.117 E2.37136
G1 X115.370 Y101.117 E2.46385
G1 X115.161 Y101.302 E2.47160
G1 X111.825 Y101.302 E2.56428
G1 X111.825 Y101.117 E2.56942
G1 X101.620 Y101.117 E2.85288
G1 X101.411 Y101.302 E2.86063
G1 X98.075 Y101.302 E2.95331
G1 X98.075 Y101.117 E2.95845
G1 X94.745 Y101.117 E3.05094
G1 X94.536 Y101.302 E3.05869
G1 X91.200 Y101.302 E3.15137
G1 X91.200 Y101.117 E3.15651
G1 X81.973 Y101.117 E3.41279
G1 X81.848 Y99.134 E3.46800
G1 X81.767 Y98.708 E3.48004
G1 X81.565 Y98.088 E3.49816
G1 X80.221 Y97.362 F7800.000
G1 X123.782 Y97.362 E4.70817 F1284.366
G1 X123.782 Y101.772 E4.83067
G1 X122.493 Y101.772 E4.86647
G1 X122.361 Y101.889 E4.87138
G1 X122.100 Y101.957 E4.87887
G1 X118.045 Y101.957 E4.99150
G1 X118.045 Y101.772 E4.99664
G1 X115.618 Y101.772 E5.06406
G1 X115.486 Y101.889 E5.06897
G1 X115.225 Y101.957 E5.07646
G1 X111.170 Y101.957 E5.18908
G1 X111.170 Y101.772 E5.19422
G1 X101.868 Y101.772 E5.45261
G1 X101.736 Y101.889 E5.45752
G1 X101.475 Y101.957 E5.46501
G1 X97.420 Y101.957 E5.57764
G1 X97.420 Y101.772 E5.58278
G1 X94.993 Y101.772 E5.65020
G1 X94.861 Y101.889 E5.65511
G1 X94.600 Y101.957 E5.66260
G1 X90.545 Y101.957 E5.77523
G1 X90.545 Y101.772 E5.78037
G1 X80.221 Y101.772 E6.06714
G1 X80.686 Y101.211 E6.08736
G1 X80.874 Y100.914 E6.09712
G1 X81.023 Y100.596 E6.10688
G1 X81.096 Y100.373 E6.11339
G1 X81.271 Y100.373 E6.11825
G1 X81.198 Y99.216 E6.15045
G1 X81.132 Y98.871 E6.16020
G1 X81.023 Y98.537 E6.16996
G1 X80.874 Y98.220 E6.17971
G1 X80.686 Y97.923 E6.18947
G1 X80.269 Y97.420 E6.20762
G1 X83.125 Y96.817 F7800.000
G1 X83.125 Y94.817 E6.24459 F899.056
G1 X83.664 Y94.817 E6.25455
G1 X83.664 Y96.817 E6.29153
G1 X90.000 Y96.817 E6.40868
G1 X90.000 Y96.421 E6.41600
G1 X90.099 Y95.767 E6.42822
G1 X90.360 Y95.259 E6.43878
G1 X90.727 Y94.935 E6.44784
G1 X91.182 Y94.817 E6.45653
G1 X95.850 Y94.817 E6.54283
G1 X95.850 Y96.817 E6.57981
G1 X96.875 Y96.817 E6.59876
G1 X96.875 Y94.817 E6.63573
